src/actions/16/media-playlist-repeat.svg

<svg viewBox="0 0 16 16" xmlns="http://www.w3.org/2000/svg">
 <defs>
  <style type="text/css">.ColorScheme-Text {
        color:#2e3440;
      }</style>
 </defs>
 <path class="ColorScheme-Text" d="m11 3.5v1.5h-6c-1.662 0-3 1.338-3 3h1c0-1.108 0.892-2 2-2h6v1.5l3-2-3-2zm2 4.5c0 1.108-0.892 2-2 2h-6v-1.5l-3 2 3 2v-1.5h6c1.662 0 3-1.338 3-3h-1z" fill="currentColor"/>
</svg>

<svg xmlns="http://www.w3.org/2000/svg" viewBox="0 0 16 16">
  <defs id="defs3051">
    <style type="text/css" id="current-color-scheme">
      .ColorScheme-Text {
        color:#2e3440;
      }
      </style>
  </defs>
 <path style="fill:currentColor;fill-opacity:1;stroke:none" 
     d="M 11 3.5 L 11 5 L 5 5 C 3.338 5 2 6.338 2 8 L 3 8 C 3 6.892 3.892 6 5 6 L 11 6 L 11 7.5 L 14 5.5 L 11 3.5 z M 13 8 C 13 9.108 12.108 10 11 10 L 5 10 L 5 8.5 L 2 10.5 L 5 12.5 L 5 11 L 11 11 C 12.662 11 14 9.662 14 8 L 13 8 z "
     class="ColorScheme-Text"
     />
</svg>
